svg/building/canton_tower_fill.svg

<?xml version="1.0" encoding="UTF-8"?>
<svg width="24px" height="24px" viewBox="0 0 24 24" version="1.1" xmlns="http://www.w3.org/2000/svg" xmlns:xlink="http://www.w3.org/1999/xlink">
    <title>tower_3_fill</title>
    <g id="页面-1" stroke="none" stroke-width="1" fill="none" fill-rule="evenodd">
        <g id="Building" transform="translate(-240.000000, -136.000000)" fill-rule="nonzero">
            <g id="tower_3_fill" transform="translate(240.000000, 136.000000)">
                 <path d="M24,0 L24,24 L0,24 L0,0 L24,0 Z M12.5934901,23.257841 L12.5819402,23.2595131 L12.5108777,23.2950439 L12.4918791,23.2987469 L12.4918791,23.2987469 L12.4767152,23.2950439 L12.4056548,23.2595131 C12.3958229,23.2563662 12.3870493,23.2590235 12.3821421,23.2649074 L12.3780323,23.275831 L12.360941,23.7031097 L12.3658947,23.7234994 L12.3769048,23.7357139 L12.4804777,23.8096931 L12.4953491,23.8136134 L12.4953491,23.8136134 L12.5071152,23.8096931 L12.6106902,23.7357139 L12.6232938,23.7196733 L12.6232938,23.7196733 L12.6266527,23.7031097 L12.609561,23.275831 C12.6075724,23.2657013 12.6010112,23.2592993 12.5934901,23.257841 L12.5934901,23.257841 Z M12.8583906,23.1452862 L12.8445485,23.1473072 L12.6598443,23.2396597 L12.6498822,23.2499052 L12.6498822,23.2499052 L12.6471943,23.2611114 L12.6650943,23.6906389 L12.6699349,23.7034178 L12.6699349,23.7034178 L12.678386,23.7104931 L12.8793402,23.8032389 C12.8914285,23.8068999 12.9022333,23.8029875 12.9078286,23.7952264 L12.9118235,23.7811639 L12.8776777,23.1665331 C12.8752882,23.1545897 12.8674102,23.1470016 12.8583906,23.1452862 L12.8583906,23.1452862 Z M12.1430473,23.1473072 C12.1332178,23.1423925 12.1221763,23.1452606 12.1156365,23.1525954 L12.1099173,23.1665331 L12.0757714,23.7811639 C12.0751323,23.7926639 12.0828099,23.8018602 12.0926481,23.8045676 L12.108256,23.8032389 L12.3092106,23.7104931 L12.3186497,23.7024347 L12.3186497,23.7024347 L12.3225043,23.6906389 L12.340401,23.2611114 L12.337245,23.2485176 L12.337245,23.2485176 L12.3277531,23.2396597 L12.1430473,23.1473072 Z" id="MingCute" fill-rule="nonzero"></path>
                <path d="M13,2 C13,1.44772 12.5523,1 12,1 C11.4477,1 11,1.44772 11,2 L11,4 L9.01281,4 C8.39599,4 7.86629,4.57742 8.03194,5.25098 C8.08812,5.4794 9,9.25433 9,13 C9,14.9244 8.7587,16.865 8.51361,18.3356 C8.40025,19.0157 8.2892,19.7038 8.1117,20.371 C8.0564,20.5788 7.99992,20.7911 7.99976,21 L7,21 C6.44772,21 6,21.4477 6,22 C6,22.5523 6.44772,23 7,23 L17,23 C17.5523,23 18,22.5523 18,22 C18,21.4477 17.5523,21 17,21 L16.0002,21 C16.0001,20.7935 15.943,20.5779 15.8876,20.3687 C15.711,19.7021 15.5996,19.015 15.4864,18.3356 C15.2413,16.865 15,14.9244 15,13 C15,9.25433 15.9119,5.4794 15.9681,5.25098 C16.1337,4.57742 15.604,4 14.9872,4 L13,4 L13,2 Z" id="路径" fill="#09244B"></path>
            </g>
        </g>
    </g>
</svg>

<svg xmlns="http://www.w3.org/2000/svg" width="24" height="24"><g fill="none" fill-rule="nonzero"><path d="M24 0v24H0V0h24ZM12.593 23.258l-.011.002-.071.035-.02.004-.014-.004-.071-.035c-.01-.004-.019-.001-.024.005l-.004.01-.017.428.005.02.01.013.104.074.015.004.012-.004.104-.074.012-.016.004-.017-.017-.427c-.002-.01-.009-.017-.017-.018Zm.265-.113-.013.002-.185.093-.01.01-.003.011.018.43.005.012.008.007.201.093c.012.004.023 0 .029-.008l.004-.014-.034-.614c-.003-.012-.01-.02-.02-.022Zm-.715.002a.023.023 0 0 0-.027.006l-.006.014-.034.614c0 .012.007.02.017.024l.015-.002.201-.093.01-.008.004-.011.017-.43-.003-.012-.01-.01-.184-.092Z"/><path fill="#09244B" d="M13 2a1 1 0 1 0-2 0v2H9.013c-.617 0-1.147.577-.981 1.251C8.088 5.479 9 9.254 9 13c0 1.924-.241 3.865-.486 5.336-.114.68-.225 1.368-.402 2.035-.056.208-.112.42-.112.629H7a1 1 0 1 0 0 2h10a1 1 0 1 0 0-2h-1c0-.206-.057-.422-.112-.631-.177-.667-.288-1.354-.402-2.033C15.241 16.865 15 14.924 15 13c0-3.746.912-7.52.968-7.749.166-.674-.364-1.251-.98-1.251H13V2Z"/></g></svg>
